X: 1
T: Maggie in the Woods
C: trad
O: Ireland
%D:
R: polka, march
S: Fiddle Hell Online 2022-4-5 handout for Tom Morley's Irish Slow Jam
Z: 2022 John Chambers <jc:trillian.mit.edu>
M: C|
L: 1/4
K: G
"^A"|: (uB/A/) \
| "G"vGD GA | "Em"Be e(g/e/) | "G"dB B/A/G/A/ | "D"BA A(B/A/) |\
| "G"vGD GA | "Em"Be e(g/e/) | "G"dB "D"AuB/vA/ | "G" G2 G :|
"^B"[| d \
| "G"vgf ed | "C"ef g>e | "G"dB B/A/G/A/ | "D"BA Ad |\
| "G"vgf ed | "C"ef g>e | "G"dB "D"AB/A/ | "G"uG2 G |]
[| d \
| "G"vgf ed | "C"ef g>e | "G"dB B/A/G/A/ | "D"BA A(B/A/) |\
| "G"vGD GA | "Em"Be e(g/e/) | "G"dB "D"AB/A/ | "G" G2 G |]
